dist/uploads/catalog-sidebar-icons/1/i-catalog-16.svg

<svg width="38" height="26" viewBox="0 0 38 26" fill="none" xmlns="http://www.w3.org/2000/svg">
<path d="M38 15.6802C38 15.1904 38 14.7021 38 14.2151C37.9862 14.3748 37.93 14.5278 37.8372 14.6585C37.7444 14.7891 37.6184 14.8926 37.4722 14.9582L36.7798 15.3551L36.2013 15.6887L26.638 21.2029C26.5606 21.2466 26.4802 21.2847 26.3973 21.3169H26.3678L26.1989 21.376H26.1313L26.0216 21.4013H25.9498H25.8653H25.7893H25.6922H25.27H25.1518H25.0842L24.8816 21.3718H24.814H24.7169H24.6409H24.5944H24.5522H24.4973L24.3622 21.3211L24.3073 21.2958L24.1384 21.2113L1.80289 8.24489L1.38067 8L0.536222 7.49756L0.468667 7.45533L0.405333 7.41311L0.354667 7.37089L0.299778 7.32867L0.253333 7.29911L0.177333 7.21889L0.147778 7.17667L0.105556 7.11333L0.0802222 7.07111L0.0548889 7.01622V6.96978C0.0548889 6.96978 0.0548889 6.93178 0.0548889 6.91489V6.86844C0.0548889 6.86844 0.0548889 6.83044 0.0548889 6.81356C0.0548889 6.79667 0.0548889 6.77978 0.0548889 6.75867C0.0548889 7.24844 0.0548889 7.73681 0.0548889 8.22378H0V11.3187C0.00484926 11.3955 0.0306223 11.4696 0.0745304 11.5328C0.118438 11.5961 0.17881 11.6461 0.249111 11.6776C0.29491 11.7042 0.342943 11.7268 0.392667 11.7451H0.422222L0.532 11.7789H0.557333H0.582667H0.624889H0.713556H0.979556H1.07667H1.19067H1.216L1.26667 11.8211H1.32156C1.38286 11.8012 1.44222 11.7758 1.49889 11.7451L1.54111 11.7198L1.58333 11.686L1.68889 11.6227L1.74378 11.5636L1.76911 11.5298L1.79022 11.4791C1.79119 11.4651 1.79119 11.4509 1.79022 11.4369C1.79165 11.42 1.79165 11.4031 1.79022 11.3862V9.71L24.0836 22.6638L24.2524 22.7482L24.3031 22.7693L24.4424 22.82H24.4762H24.4973H24.5396V24.7538C24.5444 24.8306 24.5702 24.9047 24.6141 24.9679C24.658 25.0312 24.7184 25.0812 24.7887 25.1127C24.8345 25.1393 24.8825 25.1619 24.9322 25.1802L25.042 25.214H25.0673H25.0927H25.1349H25.2236H25.4896H25.5867H25.7007H25.7556H25.8358H25.8907C25.9519 25.194 26.0113 25.1686 26.068 25.138L26.1102 25.1127L26.1524 25.0789L26.1989 25.0451L26.2538 24.986L26.2791 24.9522L26.3002 24.9016C26.3011 24.8875 26.3011 24.8734 26.3002 24.8593C26.3015 24.8425 26.3015 24.8255 26.3002 24.8087V22.7989C26.3829 22.7664 26.4633 22.7283 26.5409 22.6849L36.2182 17.1369V18.6273C36.2231 18.7042 36.2488 18.7782 36.2928 18.8415C36.3367 18.9048 36.397 18.9548 36.4673 18.9862C36.5132 19.0128 36.5612 19.0354 36.6109 19.0538L36.7207 19.0876H36.746H36.7713H36.8136H36.9022H37.1682H37.2653H37.3793H37.4047H37.4849H37.5398C37.6117 19.0654 37.681 19.0357 37.7467 18.9989L37.7889 18.9736L37.8311 18.9398L37.8776 18.9018L37.9324 18.8427L37.9578 18.8047L37.9789 18.754C37.9798 18.7399 37.9798 18.7258 37.9789 18.7118C37.9802 18.6949 37.9802 18.678 37.9789 18.6611L38 15.6802Z" fill="#FFC800"/>
<path d="M5.00771 8.65009C4.95654 8.66805 4.91221 8.70147 4.88085 8.74571C4.84949 8.78996 4.83264 8.84285 4.83264 8.89709C4.83264 8.95132 4.84949 9.00422 4.88085 9.04846C4.91221 9.09271 4.95654 9.12612 5.00771 9.14409L5.72126 9.56631C5.8523 9.63205 5.99688 9.66629 6.14349 9.66629C6.29009 9.66629 6.43467 9.63205 6.56571 9.56631L18.2359 2.81075C18.2871 2.79279 18.3314 2.75938 18.3628 2.71513C18.3942 2.67088 18.411 2.61799 18.411 2.56375C18.411 2.50952 18.3942 2.45663 18.3628 2.41238C18.3314 2.36813 18.2871 2.33472 18.2359 2.31675L17.5224 1.89453C17.3913 1.82879 17.2468 1.79456 17.1002 1.79456C16.9535 1.79456 16.809 1.82879 16.6779 1.89453L5.00771 8.65009Z" fill="#FFC800"/>
<path d="M1.84072 6.83877C1.78955 6.85673 1.74522 6.89014 1.71385 6.93439C1.68249 6.97864 1.66565 7.03153 1.66565 7.08576C1.66565 7.14 1.68249 7.19289 1.71385 7.23714C1.74522 7.28139 1.78955 7.3148 1.84072 7.33277L2.55427 7.75499C2.68531 7.82073 2.82989 7.85496 2.9765 7.85496C3.1231 7.85496 3.26768 7.82073 3.39872 7.75499L15.0689 0.999432C15.1201 0.981468 15.1644 0.948054 15.1958 0.903807C15.2272 0.85956 15.244 0.806665 15.244 0.752432C15.244 0.698198 15.2272 0.645303 15.1958 0.601057C15.1644 0.55681 15.1201 0.523396 15.0689 0.505432L14.3554 0.100099C14.2243 0.0343565 14.0798 0.00012207 13.9332 0.00012207C13.7866 0.00012207 13.642 0.0343565 13.5109 0.100099L1.84072 6.83877Z" fill="#FFC800"/>
<path d="M8.14894 10.4739C8.09777 10.4919 8.05344 10.5253 8.02208 10.5695C7.99072 10.6138 7.97388 10.6667 7.97388 10.7209C7.97388 10.7752 7.99072 10.828 8.02208 10.8723C8.05344 10.9165 8.09777 10.95 8.14894 10.9679L8.86672 11.3986C8.99776 11.4643 9.14234 11.4986 9.28894 11.4986C9.43555 11.4986 9.58013 11.4643 9.71117 11.3986L21.3856 4.64303C21.4368 4.62507 21.4811 4.59165 21.5125 4.54741C21.5438 4.50316 21.5607 4.45026 21.5607 4.39603C21.5607 4.3418 21.5438 4.2889 21.5125 4.24465C21.4811 4.20041 21.4368 4.16699 21.3856 4.14903L20.6678 3.72681C20.5368 3.66107 20.3922 3.62683 20.2456 3.62683C20.099 3.62683 19.9544 3.66107 19.8234 3.72681L8.14894 10.4739Z" fill="#FFC800"/>
<path d="M11.2942 12.3023C11.243 12.3203 11.1987 12.3537 11.1673 12.3979C11.136 12.4422 11.1191 12.4951 11.1191 12.5493C11.1191 12.6035 11.136 12.6564 11.1673 12.7007C11.1987 12.7449 11.243 12.7783 11.2942 12.7963L12.0289 13.2185C12.1598 13.2846 12.3044 13.319 12.4511 13.319C12.5978 13.319 12.7424 13.2846 12.8733 13.2185L24.5435 6.46298C24.5947 6.44501 24.639 6.4116 24.6704 6.36735C24.7018 6.3231 24.7186 6.27021 24.7186 6.21598C24.7186 6.16174 24.7018 6.10885 24.6704 6.0646C24.639 6.02035 24.5947 5.98694 24.5435 5.96898L23.8089 5.54675C23.6778 5.48101 23.5333 5.44678 23.3867 5.44678C23.24 5.44678 23.0955 5.48101 22.9644 5.54675L11.2942 12.3023Z" fill="#FFC800"/>
<path d="M14.4569 14.1433C14.4058 14.1612 14.3614 14.1946 14.3301 14.2389C14.2987 14.2831 14.2819 14.336 14.2819 14.3903C14.2819 14.4445 14.2987 14.4974 14.3301 14.5416C14.3614 14.5859 14.4058 14.6193 14.4569 14.6373L15.1747 15.0595C15.3057 15.1252 15.4503 15.1595 15.5969 15.1595C15.7435 15.1595 15.8881 15.1252 16.0191 15.0595L27.6894 8.30393C27.7405 8.28597 27.7849 8.25256 27.8162 8.20831C27.8476 8.16406 27.8644 8.11117 27.8644 8.05693C27.8644 8.0027 27.8476 7.94981 27.8162 7.90556C27.7849 7.86131 27.7405 7.8279 27.6894 7.80993L26.9716 7.38771C26.8407 7.32165 26.696 7.28723 26.5494 7.28723C26.4027 7.28723 26.2581 7.32165 26.1271 7.38771L14.4569 14.1433Z" fill="#FFC800"/>
<path d="M17.6026 15.967C17.5514 15.985 17.5071 16.0184 17.4757 16.0627C17.4443 16.1069 17.4275 16.1598 17.4275 16.214C17.4275 16.2683 17.4443 16.3212 17.4757 16.3654C17.5071 16.4097 17.5514 16.4431 17.6026 16.461L18.3203 16.8833C18.4514 16.949 18.596 16.9832 18.7426 16.9832C18.8892 16.9832 19.0337 16.949 19.1648 16.8833L30.8223 10.1319C30.8735 10.114 30.9178 10.0806 30.9492 10.0363C30.9806 9.99207 30.9974 9.93917 30.9974 9.88494C30.9974 9.8307 30.9806 9.77781 30.9492 9.73356C30.9178 9.68932 30.8735 9.6559 30.8223 9.63794L30.1046 9.21571C29.9736 9.14965 29.829 9.11523 29.6823 9.11523C29.5357 9.11523 29.3911 9.14965 29.2601 9.21571L17.6026 15.967Z" fill="#FFC800"/>
<path d="M20.7479 17.7955C20.6968 17.8134 20.6524 17.8469 20.6211 17.8911C20.5897 17.9353 20.5729 17.9882 20.5729 18.0425C20.5729 18.0967 20.5897 18.1496 20.6211 18.1938C20.6524 18.2381 20.6968 18.2715 20.7479 18.2895L21.4657 18.7117C21.5968 18.7774 21.7413 18.8117 21.8879 18.8117C22.0345 18.8117 22.1791 18.7774 22.3102 18.7117L33.9804 11.9561C34.0316 11.9382 34.0759 11.9048 34.1073 11.8605C34.1386 11.8163 34.1555 11.7634 34.1555 11.7091C34.1555 11.6549 34.1386 11.602 34.1073 11.5578C34.0759 11.5135 34.0316 11.4801 33.9804 11.4621L33.2626 11.0399C33.1316 10.9742 32.987 10.9399 32.8404 10.9399C32.6938 10.9399 32.5492 10.9742 32.4182 11.0399L20.7479 17.7955Z" fill="#FFC800"/>
<path d="M23.8937 19.6237C23.8425 19.6417 23.7982 19.6751 23.7668 19.7193C23.7355 19.7636 23.7186 19.8165 23.7186 19.8707C23.7186 19.925 23.7355 19.9778 23.7668 20.0221C23.7982 20.0663 23.8425 20.0998 23.8937 20.1177L24.6115 20.5399C24.7424 20.606 24.887 20.6404 25.0337 20.6404C25.1804 20.6404 25.325 20.606 25.4559 20.5399L37.1261 13.7844C37.1773 13.7664 37.2216 13.733 37.253 13.6888C37.2844 13.6445 37.3012 13.5916 37.3012 13.5374C37.3012 13.4832 37.2844 13.4303 37.253 13.386C37.2216 13.3418 37.1773 13.3084 37.1261 13.2904L36.4084 12.8682C36.2773 12.8024 36.1327 12.7682 35.9861 12.7682C35.8395 12.7682 35.695 12.8024 35.5639 12.8682L23.8937 19.6237Z" fill="#FFC800"/>
</svg>

<svg width="38" height="26" fill="none" xmlns="http://www.w3.org/2000/svg"><path d="M38 15.68v-1.465a.9.9 0 0 1-.528.743l-.692.397-.579.334-9.563 5.514a1.857 1.857 0 0 1-.24.114h-.03l-.17.059h-.067l-.11.025h-.936l-.202-.03h-.386l-.135-.05-.055-.025-.169-.085L1.803 8.245 1.38 8l-.845-.502-.067-.043-.064-.042-.05-.042L.3 7.329l-.047-.03-.076-.08-.03-.042-.041-.064-.026-.042-.025-.055v-.257 1.465H0v3.095a.422.422 0 0 0 .25.359.89.89 0 0 0 .143.067h.03l.109.034h.684l.05.042h.056c.06-.02.12-.045.177-.076l.042-.025.042-.034.106-.063.055-.06.025-.033.021-.05a.306.306 0 0 0 0-.043.3.3 0 0 0 0-.05V9.71l22.294 12.954.168.084.051.021.14.051h.097v1.934a.422.422 0 0 0 .249.359.89.89 0 0 0 .143.067l.11.034h.849c.06-.02.12-.045.177-.076l.042-.025.042-.034.047-.034.055-.059.025-.034.021-.05v-.043a.329.329 0 0 0 0-.05v-2.01c.083-.033.163-.07.24-.114l9.678-5.548v1.49a.422.422 0 0 0 .25.36.93.93 0 0 0 .143.067l.11.034h.819c.072-.023.141-.052.207-.09l.042-.024.042-.034.047-.038.054-.06.026-.037.02-.051a.33.33 0 0 0 0-.042.33.33 0 0 0 0-.05L38 15.68z" fill="#FFC800"/><path d="M5.008 8.65a.262.262 0 0 0 0 .494l.713.422a.942.942 0 0 0 .845 0l11.67-6.755a.262.262 0 0 0 0-.494l-.714-.422a.942.942 0 0 0-.844 0L5.008 8.65zM1.84 6.839a.262.262 0 0 0 0 .494l.714.422a.942.942 0 0 0 .845 0L15.069.999a.262.262 0 0 0 0-.494L14.355.1a.942.942 0 0 0-.844 0L1.84 6.84zm6.309 3.635a.262.262 0 0 0 0 .494l.718.43a.942.942 0 0 0 .844 0l11.675-6.755a.262.262 0 0 0 0-.494l-.718-.422a.941.941 0 0 0-.845 0L8.15 10.474zm3.145 1.828a.262.262 0 0 0 0 .494l.735.423a.937.937 0 0 0 .844 0l11.67-6.756a.262.262 0 0 0 0-.494l-.734-.422a.942.942 0 0 0-.845 0l-11.67 6.755zm3.163 1.841a.26.26 0 0 0-.127.399.262.262 0 0 0 .127.095l.718.422a.942.942 0 0 0 .844 0l11.67-6.755a.262.262 0 0 0 0-.494l-.717-.422a.937.937 0 0 0-.845 0l-11.67 6.755zm3.146 1.824a.262.262 0 0 0 0 .494l.717.422a.943.943 0 0 0 .845 0l11.657-6.751a.261.261 0 0 0 0-.494l-.717-.422a.938.938 0 0 0-.845 0l-11.657 6.751zm3.145 1.829a.262.262 0 0 0 0 .494l.718.422a.942.942 0 0 0 .844 0l11.67-6.756a.261.261 0 0 0 0-.494l-.717-.422a.942.942 0 0 0-.845 0l-11.67 6.756zm3.146 1.828a.262.262 0 0 0 0 .494l.718.422a.937.937 0 0 0 .844 0l11.67-6.756a.262.262 0 0 0 0-.494l-.718-.422a.941.941 0 0 0-.844 0l-11.67 6.756z" fill="#FFC800"/></svg>
